raw-svg/filter.svg

<svg viewBox="0 0 24 24" xmlns="http://www.w3.org/2000/svg"><path d="m14 20.5h-4a.76.76 0 0 1 -.75-.75v-7.75l-5.35-7.31a.73.73 0 0 1 -.07-.78.76.76 0 0 1 .67-.41h15a.76.76 0 0 1 .67.41.73.73 0 0 1 -.07.78l-5.35 7.31v7.75a.76.76 0 0 1 -.75.75zm-3.25-1.5h2.5v-7.25a.71.71 0 0 1 .15-.44l4.6-6.31h-12l4.62 6.31a.71.71 0 0 1 .15.44z"/></svg>

<svg xmlns="http://www.w3.org/2000/svg" viewBox="0 0 24 24"><g id="filter"><path d="M14,20.5H10a.76.76,0,0,1-.75-.75V12L3.9,4.69a.73.73,0,0,1-.07-.78A.76.76,0,0,1,4.5,3.5h15a.76.76,0,0,1,.67.41.73.73,0,0,1-.07.78L14.75,12v7.75A.76.76,0,0,1,14,20.5ZM10.75,19h2.5V11.75a.71.71,0,0,1,.15-.44L18,5H6l4.62,6.31a.71.71,0,0,1,.15.44Z"/></g></svg>
